images_sukapura_svg/cmd/lc_optimizetable.svg

<svg viewBox="0 0 24 24" xmlns="http://www.w3.org/2000/svg" xmlns:xlink="http://www.w3.org/1999/xlink"><linearGradient id="a" gradientUnits="userSpaceOnUse" x1="-13.118644" x2="-13.118644" y1="29.61017" y2="17.61017"><stop offset="0" stop-color="#2a9240"/><stop offset="1" stop-color="#32d74b"/></linearGradient><linearGradient id="b" gradientUnits="userSpaceOnUse" x1="12" x2="12" y1="3" y2="21"><stop offset="0" stop-color="#efefef"/><stop offset=".33333334" stop-color="#fff"/><stop offset=".8888889" stop-color="#fff"/><stop offset="1" stop-color="#f5f5f5"/></linearGradient><filter id="c" color-interpolation-filters="sRGB" height="1.094553" width="1.097492" x="-.048746" y="-.047277"><feGaussianBlur stdDeviation=".36559322"/></filter><path d="m3 4h18v18.559322h-18z" filter="url(#c)" opacity=".15" stroke-width="1.015418"/><path d="m3 3h18v18h-18z" fill="url(#b)"/><path d="m3 2c-.554 0-1 .446-1 1v18c0 .554.446 1 1 1h18c.554 0 1-.446 1-1v-18c0-.554-.446-1-1-1zm0 1h5v6h-5zm6 0h6v6h-6zm7 0h5v6h-5zm-13 7h5v3h-5zm6 0h6v3h-6zm7 0h5v3h-5zm-13 4h5v3h-5zm6 0h6v3h-6zm7 0h5v3h-5zm-13 4h5v3h-5zm6 0h6v3h-6zm7 0h5v3h-5z" fill="#bababa"/><path d="m2 2h20v4h-20z" fill="#0a84ff"/><path d="m3 2c-.554 0-1 .446-1 1v18c0 .554.446 1 1 1h18c.554 0 1-.446 1-1v-18c0-.554-.446-1-1-1zm0 1h5 1 6 1 5v6 1 3 1 3 1 3h-5-1-6-1-5v-3-1-3-1-3-1z" fill="#69696e"/><path d="m3 2c-.554 0-1 .446-1 1v2 1h1 18 1v-1-2c0-.554-.446-1-1-1zm0 1h5v2h-5zm6 0h6v2h-6zm7 0h5v2h-5z" fill="#0040dd"/><path d="m2 2v1c0-.554.446-1 1-1zm19 0c.554 0 1 .446 1 1v-1zm.990234 8.015625c-.05644.0018-.112628.008301-.167968.019531-.120998.0006-.236223-.022767-.359375.001953l-.011719.001953c-.157994.033384-.30717.088847-.451172.154297-.291981.132714-.554147.323787-.765625.576172l.019531-.02539-2.046875 2.291015-.863281.964844-2.679688 3-.089843.099609-.97461 1.091797-1.886718-1.84375c-.758598-.741808-1.8627771-.838629-2.712891-.292968-.128629.082761-.2543018.180705-.3691406.292968-.1147103.11216-.212997.233811-.296875.361328-.012911.01947-.0209932.040787-.0332032.060547-.2309791.377645-.3373471.805706-.3144531 1.230469.002593.04752.0078723.095268.0136719.142578.013217.10813.0352317.214651.0644531.320313.005621.01979.0133213.038923.0195313.058593.0287107.093369.0636957.185701.1054687.275391.017058.035769.0374737.070429.0566407.105469.0390781.072879.0785951.145723.1269531.214844.0760569.107327.1597535.21076.2578125.30664l.3691406.361328 1.242188 1.214844 1.023437 1h4.701172l.894531-1 3.578125-4 .560547-.625 1-1.119141v-5.240234c-.0033.000039-.006466-.000071-.009766 0z" fill="#fff" fill-opacity=".784314"/><path d="m22.008379 11.015652c-.11263-.02069-.229582-.02189-.349814.0022-.256226.05414-.492352.195183-.658476.393444l-7.352978 8.22655-2.633903-2.575268c-.440541-.430791-1.2421489-.430757-1.6827719 0-.440564.430768-.440599 1.214497 0 1.645311l3.5118709 3.433689.91455.858422.804804-.929957 8.194364-9.156507c.581205-.618654.04074-1.75309-.747646-1.897919z" fill="url(#a)"/></svg>

<?xml version="1.0" encoding="UTF-8" standalone="no"?>
<svg
   xmlns:dc="http://purl.org/dc/elements/1.1/"
   xmlns:cc="http://creativecommons.org/ns#"
   xmlns:rdf="http://www.w3.org/1999/02/22-rdf-syntax-ns#"
   xmlns:svg="http://www.w3.org/2000/svg"
   xmlns="http://www.w3.org/2000/svg"
   xmlns:xlink="http://www.w3.org/1999/xlink"
   xmlns:sodipodi="http://sodipodi.sourceforge.net/DTD/sodipodi-0.dtd"
   xmlns:inkscape="http://www.inkscape.org/namespaces/inkscape"
   viewBox="0 0 24 24"
   version="1.1"
   id="svg971"
   sodipodi:docname="lc_optimizetable.svg"
   inkscape:version="0.92.3 (unknown)">
  <metadata
     id="metadata977">
    <rdf:RDF>
      <cc:Work
         rdf:about="">
        <dc:format>image/svg+xml</dc:format>
        <dc:type
           rdf:resource="http://purl.org/dc/dcmitype/StillImage" />
        <dc:title></dc:title>
      </cc:Work>
    </rdf:RDF>
  </metadata>
  <defs
     id="defs975">
    <linearGradient
       inkscape:collect="always"
       xlink:href="#a-36"
       id="linearGradient2442"
       x1="18"
       y1="23"
       x2="18"
       y2="11"
       gradientUnits="userSpaceOnUse" />
    <linearGradient
       gradientTransform="translate(-31.118644,6.6101695)"
       id="a-36"
       gradientUnits="userSpaceOnUse"
       x1="14"
       x2="13.79661"
       y1="22"
       y2="2.1355929">
      <stop
         offset="0"
         stop-color="#0040dd"
         id="stop1586"
         style="stop-color:#2a9240;stop-opacity:1" />
      <stop
         offset="1"
         stop-color="#0a84ff"
         id="stop1588"
         style="stop-color:#32d74b;stop-opacity:1" />
    </linearGradient>
  </defs>
  <sodipodi:namedview
     pagecolor="#ffffff"
     bordercolor="#666666"
     borderopacity="1"
     objecttolerance="10"
     gridtolerance="10"
     guidetolerance="10"
     inkscape:pageopacity="0"
     inkscape:pageshadow="2"
     inkscape:window-width="1366"
     inkscape:window-height="699"
     id="namedview973"
     showgrid="false"
     inkscape:zoom="9.8333333"
     inkscape:cx="12.424319"
     inkscape:cy="8.1065445"
     inkscape:window-x="0"
     inkscape:window-y="0"
     inkscape:window-maximized="1"
     inkscape:current-layer="svg971" />
  <linearGradient
     id="a"
     gradientUnits="userSpaceOnUse"
     x1="12"
     x2="12"
     y1="3"
     y2="21">
    <stop
       offset="0"
       stop-color="#efefef"
       id="stop947" />
    <stop
       offset=".33333334"
       stop-color="#fff"
       id="stop949" />
    <stop
       offset=".8888889"
       stop-color="#fff"
       id="stop951" />
    <stop
       offset="1"
       stop-color="#f5f5f5"
       id="stop953" />
  </linearGradient>
  <filter
     id="b"
     color-interpolation-filters="sRGB"
     height="1.094553"
     width="1.097492"
     x="-.048746"
     y="-.047277">
    <feGaussianBlur
       stdDeviation=".36559322"
       id="feGaussianBlur956" />
  </filter>
  <path
     d="m3 4h18v18.559322h-18z"
     filter="url(#b)"
     opacity=".15"
     stroke-width="1.015418"
     id="path959" />
  <path
     d="m3 3h18v18h-18z"
     fill="url(#a)"
     id="path961" />
  <path
     d="m3 2c-.554 0-1 .446-1 1v18c0 .554.446 1 1 1h18c.554 0 1-.446 1-1v-18c0-.554-.446-1-1-1zm0 1h5v6h-5zm6 0h6v6h-6zm7 0h5v6h-5zm-13 7h5v3h-5zm6 0h6v3h-6zm7 0h5v3h-5zm-13 4h5v3h-5zm6 0h6v3h-6zm7 0h5v3h-5zm-13 4h5v3h-5zm6 0h6v3h-6zm7 0h5v3h-5z"
     fill="#bababa"
     id="path963" />
  <path
     d="m2 2h20v4h-20z"
     fill="#0a84ff"
     id="path965" />
  <path
     d="m3 2c-.554 0-1 .446-1 1v18c0 .554.446 1 1 1h18c.554 0 1-.446 1-1v-18c0-.554-.446-1-1-1zm0 1h5 1 6 1 5v6 1 3 1 3 1 3h-5-1-6-1-5v-3-1-3-1-3-1z"
     fill="#69696e"
     id="path967" />
  <path
     d="m3 2c-.554 0-1 .446-1 1v2 1h1 18 1v-1-2c0-.554-.446-1-1-1zm0 1h5v2h-5zm6 0h6v2h-6zm7 0h5v2h-5z"
     fill="#0040dd"
     id="path969" />
  <path
     style="fill:#ffffff;fill-opacity:0.78431374"
     d="M 2 2 L 2 3 C 2 2.446 2.446 2 3 2 L 2 2 z M 21 2 C 21.554 2 22 2.446 22 3 L 22 2 L 21 2 z M 21.990234 10.015625 C 21.933794 10.017425 21.877606 10.023926 21.822266 10.035156 C 21.701268 10.035756 21.586043 10.012389 21.462891 10.037109 L 21.451172 10.039062 C 21.293178 10.072446 21.144002 10.127909 21 10.193359 C 20.708019 10.326073 20.445853 10.517146 20.234375 10.769531 L 20.253906 10.744141 L 18.207031 13.035156 L 17.34375 14 L 14.664062 17 L 14.574219 17.099609 L 13.599609 18.191406 L 11.712891 16.347656 C 10.954293 15.605848 9.8501139 15.509027 9 16.054688 C 8.871371 16.137449 8.7456982 16.235393 8.6308594 16.347656 C 8.5161491 16.459816 8.4178624 16.581467 8.3339844 16.708984 C 8.3210734 16.728454 8.3129912 16.749771 8.3007812 16.769531 C 8.0698021 17.147176 7.9634341 17.575237 7.9863281 18 C 7.9889211 18.04752 7.9942004 18.095268 8 18.142578 C 8.013217 18.250708 8.0352317 18.357229 8.0644531 18.462891 C 8.0700741 18.482681 8.0777744 18.501814 8.0839844 18.521484 C 8.1126951 18.614853 8.1476801 18.707185 8.1894531 18.796875 C 8.2065111 18.832644 8.2269268 18.867304 8.2460938 18.902344 C 8.2851719 18.975223 8.3246889 19.048067 8.3730469 19.117188 C 8.4491038 19.224515 8.5328004 19.327948 8.6308594 19.423828 L 9 19.785156 L 10.242188 21 L 11.265625 22 L 15.966797 22 L 16.861328 21 L 20.439453 17 L 21 16.375 L 22 15.255859 L 22 10.015625 C 21.9967 10.015664 21.993534 10.015554 21.990234 10.015625 z "
     id="path1540" />
  <path
     inkscape:connector-curvature="0"
     style="fill:url(#linearGradient2442);fill-opacity:1"
     d="m 22.008379,11.015652 c -0.11263,-0.02069 -0.229582,-0.02189 -0.349814,0.0022 -0.256226,0.05414 -0.492352,0.195183 -0.658476,0.393444 l -7.352978,8.22655 -2.633903,-2.575268 c -0.440541,-0.430791 -1.2421489,-0.430757 -1.6827719,0 -0.440564,0.430768 -0.440599,1.214497 0,1.645311 L 12.842307,22.141578 13.756857,23 l 0.804804,-0.929957 8.194364,-9.156507 c 0.581205,-0.618654 0.04074,-1.75309 -0.747646,-1.897919 z"
     id="path22" />
</svg>
